X:178
M:6/8
L:1/8
Q:3/8=110
K:D
a2 g fed|e2 d cBA|Bcd efg|fed cBA|a2 g fed|e2 d cBA|Bgf edc| d3D3:|

